icons/fill-new-people-triple.svg

<svg xmlns="http://www.w3.org/2000/svg" width="32px" height="32px" viewBox="0 0 32 32" version="1.1">
    <title>fill-new-people-triple</title>
    <g id="fill-new-people-triple" stroke-width="1" fill-rule="evenodd">
        <path d="M20,19 C22.7614237,19 25,21.2385763 25,24 L25,28 C25,28.5522847 24.5522847,29 24,29 L8,29 C7.44771525,29 7,28.5522847 7,28 L7,24 C7,21.2385763 9.23857625,19 12,19 L20,19 Z M7.10165647,18.9993737 C5.80473162,20.2699351 5,22.04099 5,24 L5,26.9993737 L2,27 C1.44771525,27 1,26.5522847 1,26 L1,23 C1,20.790861 2.790861,19 5,19 L7.10165647,18.9993737 Z M27,19 C29.209139,19 31,20.790861 31,23 L31,26 C31,26.5522847 30.5522847,27 30,27 L27,26.9993737 L27,24 C27,22.04099 26.1952684,20.2699351 24.8983435,18.9993737 L27,19 Z M24,5 C27.3137085,5 30,7.6862915 30,11 C30,14.3137085 27.3137085,17 24,17 C23.3135352,17 22.6539959,16.8847181 22.0396859,16.6724581 C23.8579499,15.0256998 25,12.6462199 25,10 C25,8.15844442 24.4469009,6.44607205 23.4977603,5.01994049 C23.6622324,5.00704566 23.8302934,5 24,5 Z M8,5 C8.16970658,5 8.33776757,5.00704566 8.50390639,5.02086044 C7.55309908,6.44607205 7,8.15844442 7,10 C7,12.6462199 8.14205007,15.0256998 9.96015415,16.6724434 C9.34600415,16.8847181 8.68646484,17 8,17 C4.6862915,17 2,14.3137085 2,11 C2,7.6862915 4.6862915,5 8,5 Z M16,3 C19.8659932,3 23,6.13400675 23,10 C23,13.8659932 19.8659932,17 16,17 C12.1340068,17 9,13.8659932 9,10 C9,6.13400675 12.1340068,3 16,3 Z" id="&#24418;&#29366;" />
    </g>
</svg>

<svg xmlns="http://www.w3.org/2000/svg" viewBox="0 0 32 32"><path fill="currentColor" d="M20 19a5 5 0 0 1 5 5v4a1 1 0 0 1-1 1H8a1 1 0 0 1-1-1v-4a5 5 0 0 1 5-5zM7.102 19A6.979 6.979 0 0 0 5 24v3H2a1 1 0 0 1-1-1v-3a4 4 0 0 1 4-4zM27 19a4 4 0 0 1 4 4v3a1 1 0 0 1-1 1h-3v-3c0-1.959-.805-3.73-2.102-5zM24 5a6 6 0 1 1-1.96 11.672A8.977 8.977 0 0 0 25 10a8.958 8.958 0 0 0-1.502-4.98c.164-.013.332-.02.502-.02M8 5c.17 0 .338.007.504.02A8.94 8.94 0 0 0 7 10a8.977 8.977 0 0 0 2.96 6.672A6 6 0 1 1 8 5m8-2a7 7 0 1 1 0 14 7 7 0 0 1 0-14"/></svg>
